packages/vitzik-app/public/img/svg/instruments/instrument_Helicopter.svg

<?xml version="1.0" encoding="utf-8"?>
<!-- Generator: Adobe Illustrator 25.0.0, SVG Export Plug-In . SVG Version: 6.00 Build 0)  -->
<svg version="1.1" xmlns="http://www.w3.org/2000/svg" xmlns:xlink="http://www.w3.org/1999/xlink" x="0px" y="0px"
	 viewBox="0 0 48 48" style="enable-background:new 0 0 48 48;" xml:space="preserve">
<style type="text/css">
	.st0{fill:#F5DAA7;}
	.st1{fill:#EDC472;}
	.st2{fill:#BC9B5B;}
	.st3{fill:#9A6A53;}
	.st4{fill:#855B47;}
	.st5{fill:#F4E2C1;}
	.st6{fill:#F7F7F7;}
	.st7{fill:#C8C3CA;}
	.st8{fill:#B78C7A;}
	.st9{fill:#7A5341;}
	.st10{fill:#704C3B;}
	.st11{fill:#CF9875;}
	.st12{fill:#C7865B;}
	.st13{clip-path:url(#SVGID_3_);}
	.st14{clip-path:url(#SVGID_4_);fill:#FFFFFF;stroke:#231F20;stroke-miterlimit:10;}
	.st15{fill:#FFFFFF;stroke:#231F20;stroke-miterlimit:10;}
	.st16{fill:none;stroke:#000000;stroke-width:4.5;stroke-miterlimit:10;}
	.st17{fill:#463C4B;}
	.st18{fill:#555A6E;}
	.st19{fill:#F06423;}
	.st20{fill:#FAA51E;}
	.st21{fill:#D7E6F0;}
	.st22{fill:#DADADA;}
	.st23{fill:#C4C6C6;}
	.st24{fill:#EDEEEF;}
	.st25{fill:#797981;}
	.st26{fill:#5A5A63;}
	.st27{fill:#494951;}
	.st28{fill:#29BAED;}
	.st29{fill:#DD9554;}
	.st30{fill:#CC8244;}
	.st31{fill:#805333;}
	.st32{fill:#A56A43;}
	.st33{fill:#CB8252;}
	.st34{fill:#ECF0F1;}
	.st35{fill:#603E26;}
	.st36{fill:#F9EAB0;}
	.st37{fill:#F5EFCA;}
	.st38{fill:#464F5D;}
	.st39{fill:#F3D55B;}
	.st40{fill:#6F6571;}
	.st41{fill:#4B3F4E;}
	.st42{fill:#5D5360;}
	.st43{fill:#857E87;}
	.st44{fill:#ECEAEC;}
	.st45{fill:#DAD8DB;}
	.st46{fill:#B3E59F;}
	.st47{fill:#CCF49F;}
	.st48{fill:#792A47;}
	.st49{fill:#A62B38;}
	.st50{fill:#D22D28;}
	.st51{fill:#FF2F19;}
	.st52{fill:#FFFFFF;}
	.st53{fill:#202666;}
	.st54{fill:#FDE6BB;}
	.st55{fill:#FE501F;}
	.st56{fill:#FD7226;}
	.st57{fill:#FCCD76;}
	.st58{fill:#FB932C;}
	.st59{fill:#4D2857;}
	.st60{fill:#B19046;}
	.st61{fill:#F0C419;}
	.st62{fill:#24AE5F;}
	.st63{fill:#E64C3C;}
	.st64{fill:#3B97D3;}
	.st65{fill:#E74444;}
	.st66{fill:#CE3536;}
	.st67{fill:#D9DBDD;}
	.st68{fill:#E8EDF1;}
	.st69{fill:#F3DB70;}
	.st70{fill:#D5DAF3;}
	.st71{fill:#A2AEE6;}
	.st72{fill:#FFC344;}
	.st73{fill:#FFE177;}
	.st74{fill:#BEC6ED;}
	.st75{fill:#8795DE;}
	.st76{fill-rule:evenodd;clip-rule:evenodd;fill:#A46A5A;}
	.st77{fill-rule:evenodd;clip-rule:evenodd;fill:#845252;}
	.st78{fill-rule:evenodd;clip-rule:evenodd;fill:#FFD05B;}
	.st79{fill-rule:evenodd;clip-rule:evenodd;fill:#704242;}
	.st80{fill-rule:evenodd;clip-rule:evenodd;fill:#FFC244;}
	.st81{fill-rule:evenodd;clip-rule:evenodd;fill:#596C76;}
	.st82{fill-rule:evenodd;clip-rule:evenodd;fill:#465A61;}
	.st83{fill:#A46A5A;}
	.st84{fill:#607D8B;}
	.st85{fill:#9C27B0;}
	.st86{fill:#03A9F4;}
	.st87{fill:#8BC34A;}
	.st88{fill:#FFC107;}
	.st89{fill:#FF9800;}
	.st90{fill:#F44336;}
	.st91{fill:#D7CCC8;}
	.st92{fill:#F57C00;}
	.st93{fill:#F9BB4B;}
	.st94{fill:#FCF05A;}
	.st95{fill:#66342E;}
	.st96{fill:#D3843D;}
	.st97{fill:#704C55;}
	.st98{fill:#5A344B;}
	.st99{fill:#E63950;}
	.st100{fill:#EFE2DD;}
	.st101{fill:#FF435B;}
	.st102{fill:#FFF5F5;}
	.st103{fill:#9B786F;}
	.st104{fill:#925CB4;}
	.st105{fill:#814BA2;}
	.st106{fill:#6F3F8A;}
	.st107{fill:#FFD185;}
	.st108{fill:#FFBA48;}
	.st109{fill:#FF5A35;}
	.st110{fill:#FF7A3C;}
	.st111{fill:#FFE8C2;}
	.st112{fill:#4F4F4F;}
	.st113{fill:#FF3A2F;}
	.st114{fill:#353535;}
	.st115{fill:#FB4A59;}
	.st116{fill:#F82F40;}
	.st117{fill:#3F5959;}
	.st118{fill:#384848;}
	.st119{fill:#EFF5F6;}
	.st120{fill:#CBE5E7;}
	.st121{fill:#FCC16D;}
	.st122{fill:#FCB44D;}
	.st123{fill:#A66856;}
	.st124{fill:#735458;}
	.st125{fill:#FFDEA9;}
	.st126{fill:#5C4346;}
	.st127{fill:#8F5040;}
	.st128{fill:#595959;}
	.st129{fill:#7F221C;}
	.st130{fill:#913122;}
	.st131{fill:#FFEFB0;}
	.st132{fill:#DB2116;}
	.st133{fill:#883F2E;}
	.st134{fill:#A44F3E;}
	.st135{fill:#D8AA5E;}
	.st136{fill:#E9B665;}
	.st137{fill:#E19974;}
	.st138{fill:#FFEFD2;}
	.st139{fill:#D7D0D6;}
	.st140{fill:#E8AD8C;}
	.st141{fill:#6D3326;}
	.st142{fill:#BA5D4F;}
	.st143{fill:#F5A871;}
	.st144{fill:#E89A5E;}
	.st145{fill:#A34F41;}
	.st146{fill:#D68A5A;}
	.st147{fill:#FFE5C4;}
	.st148{fill:#FDD1A7;}
	.st149{fill:#873F30;}
	.st150{fill:#C86F5C;}
	.st151{fill:#6C3328;}
	.st152{fill:#54231D;}
	.st153{fill:#B5B1B3;}
	.st154{fill:#FEC93E;}
	.st155{fill:#EFB533;}
	.st156{fill:#F7A738;}
	.st157{fill:#EA952F;}
	.st158{fill:#FD6E2E;}
	.st159{fill:#EA551B;}
	.st160{fill:#F5A257;}
	.st161{fill:#DB8F52;}
	.st162{fill:#75360D;}
	.st163{fill:#FFBF7B;}
	.st164{fill:#00CCB2;}
	.st165{fill:#00AB94;}
	.st166{fill:#FEA832;}
	.st167{fill:#FF8700;}
	.st168{fill:#00EED0;}
	.st169{fill:#FFD400;}
	.st170{fill:#FDBF00;}
	.st171{fill:#08B865;}
	.st172{fill:#E41F2D;}
	.st173{fill:#FD4755;}
	.st174{fill:#FB2B3A;}
	.st175{fill:#FED2A4;}
	.st176{fill:#FFE5C2;}
	.st177{fill:#FFBD86;}
	.st178{fill:#FE99A0;}
	.st179{fill:#FD8087;}
	.st180{fill:#C57A44;}
	.st181{fill:#09A755;}
	.st182{fill:#FEDF30;}
	.st183{fill:#FED402;}
	.st184{fill:#FAC600;}
	.st185{fill:#46CC8D;}
	.st186{fill:#00C27A;}
	.st187{fill:#FE7701;}
	.st188{fill:#FE860A;}
	.st189{fill:#C41926;}
	.st190{fill:#E89C5D;}
	.st191{fill:#F4B37D;}
	.st192{fill:#E8626C;}
	.st193{fill:#40C6C2;}
	.st194{fill:#FFC999;}
	.st195{fill:#4A4A68;}
	.st196{fill:#333356;}
	.st197{fill:#EDEDED;}
	.st198{fill:#C9C9C9;}
	.st199{fill:#FF9900;}
	.st200{fill:#FFCE00;}
	.st201{fill:#FBBD00;}
	.st202{fill:#ED8100;}
	.st203{fill:#FFE431;}
	.st204{fill:#FF9F00;}
	.st205{fill:#FFE666;}
	.st206{fill:#FFBF00;}
	.st207{fill:#FCCD31;}
	.st208{fill:#F2B016;}
	.st209{fill:#4A4D4F;}
	.st210{fill:#D3CBC2;}
	.st211{fill:#6D7072;}
	.st212{fill:#BAAFA6;}
	.st213{fill:#888C8E;}
	.st214{fill:#B4B4B4;}
	.st215{fill:#FFE999;}
	.st216{fill:#FFCF3B;}
	.st217{fill:#C1C1C1;}
	.st218{fill:#FFBC19;}
	.st219{fill:#94E6FF;}
	.st220{fill:#315F83;}
	.st221{fill:#267EA8;}
	.st222{fill:#3B3F5F;}
	.st223{fill:#D8F2FB;}
	.st224{fill:#35495E;}
	.st225{fill:#556080;}
	.st226{fill:#E4C05C;}
	.st227{fill:#E4C05C;stroke:#E4C05C;stroke-width:2;stroke-linecap:round;stroke-linejoin:round;stroke-miterlimit:10;}
	.st228{fill:#B57F5F;}
	.st229{fill:#966A5B;}
	.st230{fill:#FFD15B;}
	.st231{fill:#A5C3DC;}
	.st232{fill:#8697CB;}
	.st233{fill:#E0E0E0;}
	.st234{fill:#CCCCCC;}
	.st235{fill:#8E8E8E;}
	.st236{fill:#A0A0A0;}
	.st237{fill:#E13732;}
	.st238{fill:#F05055;}
	.st239{fill:#D24605;}
	.st240{fill:#FFCE53;}
	.st241{fill:#FFB833;}
	.st242{fill:#4999D1;}
	.st243{fill:#43AAF0;}
	.st244{fill:#FF2E23;}
	.st245{fill:#FF4A26;}
	.st246{fill:#C6805D;}
	.st247{fill:#77CC7D;}
	.st248{fill:#52BD7E;}
	.st249{fill:#98DB7C;}
	.st250{fill:#D48C64;}
	.st251{fill:#FFD18D;}
	.st252{fill:#FBBD80;}
	.st253{fill:#F3B573;}
	.st254{fill:#434A54;}
	.st255{fill:#DA4453;}
	.st256{fill:#FFCE54;}
	.st257{fill:#ED5564;}
	.st258{fill-rule:evenodd;clip-rule:evenodd;fill:#4BC3EF;}
	.st259{fill-rule:evenodd;clip-rule:evenodd;fill:#1BADDE;}
	.st260{fill-rule:evenodd;clip-rule:evenodd;fill:#DBD8DB;}
	.st261{fill-rule:evenodd;clip-rule:evenodd;fill:#C9BFC8;}
	.st262{fill:#421815;}
	.st263{fill:#FCB982;}
	.st264{fill:#FDDBBF;}
	.st265{fill:#FCCA9F;}
	.st266{fill:#C6865C;}
	.st267{fill:#B16E3D;}
	.st268{fill:#454545;}
	.st269{fill:#EFECEF;}
	.st270{fill:#E2DFE2;}
	.st271{fill:#3F3736;}
	.st272{fill:#C4755B;}
	.st273{fill:#FFE3A1;}
	.st274{fill-rule:evenodd;clip-rule:evenodd;fill:#D48C64;}
	.st275{fill:#DBD8DB;}
	.st276{fill:#BB5D4C;}
	.st277{fill:#465A61;}
	.st278{fill:#596C76;}
	.st279{fill:#E5E1E5;}
	.st280{fill:#7A8C98;}
	.st281{fill:#FEDBA6;}
	.st282{fill:#EAB14D;}
	.st283{fill:#617881;}
	.st284{fill:#E28086;}
	.st285{fill:#DD636E;}
	.st286{fill:#FFE07D;}
	.st287{fill:#ECBE6B;}
	.st288{fill:#E9EDF5;}
	.st289{fill:#CDD2E1;}
	.st290{fill:#FFAA00;}
	.st291{fill:#FF9500;}
	.st292{fill:#555A65;}
	.st293{fill:#333940;}
	.st294{fill:#E6A373;}
	.st295{fill:#CC8552;}
	.st296{fill:#FFDF40;}
	.st297{fill:#FFBE40;}
	.st298{fill:#FF9F40;}
	.st299{fill:#F77E00;}
	.st300{fill:#FFF04A;}
	.st301{fill:#00DDC1;}
	.st302{fill:#A24603;}
	.st303{fill:#F2D813;}
	.st304{fill:#803602;}
	.st305{fill:#3A3A3A;}
	.st306{fill:#AFAFAF;}
	.st307{fill:#686868;}
	.st308{fill:#925A15;}
	.st309{fill:#F3F2F6;}
	.st310{fill:#BF7D5A;}
	.st311{fill:#AA6256;}
	.st312{fill:#894E46;}
	.st313{fill:#DBA660;}
	.st314{fill:#E49542;}
	.st315{fill:#F9EFDA;}
	.st316{fill:#756E78;}
	.st317{fill:#665E66;}
	.st318{fill:#F9F6F9;}
	.st319{fill:#BC6C59;}
	.st320{fill:#994B39;}
	.st321{fill:#FEEC96;}
	.st322{fill:#F5DB64;}
	.st323{fill:#5D5E69;}
	.st324{fill:#FFE09F;}
	.st325{fill:#ECBD83;}
	.st326{fill:#F6D190;}
	.st327{fill:#FF8086;}
	.st328{fill:#E5646E;}
	.st329{fill:#357DA3;}
	.st330{fill:#F48A3B;}
	.st331{fill:#FFC233;}
	.st332{fill:#CDDEE0;}
	.st333{fill:#C8C5C9;}
	.st334{fill:#785353;}
	.st335{fill:#6E4848;}
	.st336{fill:#B7E4F8;}
	.st337{fill:#93D6F4;}
	.st338{fill:#DBF1FB;}
	.st339{fill:#8DCAFC;}
	.st340{fill:#64B9FC;}
	.st341{fill:#C4E1FF;}
	.st342{fill:#B5DBFD;}
	.st343{fill:#FEE7C9;}
	.st344{fill:#FFD496;}
	.st345{fill:#A3E440;}
	.st346{fill:#99D53B;}
	.st347{fill:#BCEA73;}
	.st348{fill:#C76D3D;}
	.st349{fill:#AA5E33;}
	.st350{fill:#D67F4F;}
	.st351{fill:#8DC637;}
	.st352{fill:#A79BA7;}
	.st353{fill:#7A6D79;}
	.st354{fill:#C4E2FF;}
	.st355{fill:#60B7FF;}
	.st356{fill:#B3DAFE;}
	.st357{fill:#F3F0F3;}
	.st358{fill:#EFEDEF;}
	.st359{fill:#CBC4CC;}
	.st360{fill:#26A6FE;}
	.st361{fill:#D2555A;}
	.st362{fill:#FF6464;}
	.st363{fill:#D7DEED;}
	.st364{fill:#B8BFD4;}
	.st365{fill:#959CB3;}
	.st366{fill:#F8C460;}
	.st367{fill:#FAAF42;}
	.st368{fill:#7A838B;}
	.st369{fill:#5D6972;}
	.st370{fill:#A7D0E1;}
	.st371{fill:#80BBCE;}
	.st372{fill:#FFD8CA;}
	.st373{fill:#FFBFAE;}
	.st374{fill:#FFE5D8;}
	.st375{fill:#E5EEF9;}
	.st376{fill:#56595E;}
	.st377{fill:#7F8284;}
	.st378{fill:#A5A5A4;}
	.st379{fill:#95A5A5;}
	.st380{fill:#BDC3C7;}
	.st381{fill:#7F8C8D;}
</style>
<g id="Acoustic_Grand_Keyboard">
	<g id="Layer_31">
		<path class="st366" d="M19.49,20.77l1.92-1.92c1.16-1.16,2.74-1.81,4.38-1.81h11.9c1.64,0,3.22,0.65,4.38,1.81l4.32,4.32
			c1.03,1.03,1.6,2.42,1.6,3.87c0,3.02-2.45,5.47-5.47,5.47H24.98c-1.09,0-2.1-0.57-2.66-1.5l-2.84-4.73
			c-0.56-0.93-1.57-1.5-2.66-1.5H3.1v-3.1h14.2C18.12,21.68,18.91,21.35,19.49,20.77L19.49,20.77z"/>
		<path class="st367" d="M44.07,30.19H32.05c-4.51,0-8.7-2.37-11.02-6.24c-0.56-0.93-1.57-1.5-2.66-1.5H4.65v-0.77H3.1v3.1h13.73
			c1.09,0,2.1,0.57,2.66,1.5l2.84,4.73c0.56,0.93,1.57,1.5,2.66,1.5h17.55c2.34,0,4.42-1.49,5.18-3.71
			C46.7,29.7,45.41,30.19,44.07,30.19L44.07,30.19z"/>
		<path class="st366" d="M1.55,21.68h4.65l-3.1-7.74H0L1.55,21.68z"/>
		<path class="st367" d="M4.81,18.22c-1.25-0.64-2.75-0.54-3.9,0.26l0.64,3.19h4.65L4.81,18.22z"/>
		<path class="st366" d="M1.55,24.77h4.65l-3.1,4.65H0L1.55,24.77z"/>
		<path class="st367" d="M0.78,27.08c0.68,0.91,1.72,1.47,2.85,1.54l2.56-3.85H1.55L0.78,27.08z"/>
		<g>
			<circle class="st368" cx="3.87" cy="23.23" r="3.87"/>
			<path class="st368" d="M41.81,36.39h-2.32v-3.87h2.32V36.39z"/>
			<path class="st368" d="M28.65,36.39h-2.32v-3.87h2.32V36.39z"/>
		</g>
		<path class="st369" d="M41.81,34.06h-2.32v-1.55h2.32V34.06z"/>
		<path class="st369" d="M28.65,34.06h-2.32v-1.55h2.32V34.06z"/>
		<path class="st370" d="M29.42,13.94l17.37,0.72c0.64,0.03,1.18-0.47,1.21-1.11c0-0.02,0-0.03,0-0.05c0-0.62-0.49-1.13-1.11-1.16
			l-17.47-0.73V13.94z"/>
		<path class="st370" d="M29.42,13.94l-17.37,0.72c-0.64,0.03-1.18-0.47-1.21-1.11c0-0.02,0-0.03,0-0.05c0-0.62,0.49-1.13,1.11-1.16
			l17.47-0.73V13.94z"/>
		<path class="st371" d="M26.32,14.06l3.1-0.13v-2.32l-3.1,0.13V14.06z"/>
		<path class="st371" d="M32.52,14.06l-3.1-0.13v-2.32l3.1,0.13V14.06z"/>
		<path class="st366" d="M43.35,36.39l3.2-1.07c0.58-0.19,1.2,0.12,1.39,0.7c0.04,0.11,0.06,0.23,0.06,0.35
			c0,0.47-0.3,0.9-0.75,1.05l-3.89,1.3H22.84c-0.64,0-1.16-0.52-1.16-1.16c0-0.64,0.52-1.16,1.16-1.16H43.35z"/>
		<path class="st367" d="M47.76,35.69c-0.28-0.37-0.77-0.52-1.21-0.37l-3.2,1.07h2.32L47.76,35.69z"/>
		<path class="st367" d="M24,37.55c0-0.64,0.52-1.16,1.16-1.16h-2.32c-0.64,0-1.16,0.52-1.16,1.16c0,0.64,0.52,1.16,1.16,1.16l0,0
			h2.32C24.52,38.71,24,38.19,24,37.55z"/>
		<path class="st370" d="M37.94,17.05v4.63c0,1.71,1.39,3.1,3.1,3.1h6.47c-0.27-0.6-0.64-1.14-1.11-1.6l-4.33-4.33
			C40.97,17.74,39.49,17.1,37.94,17.05z"/>
		<path class="st52" d="M42.58,22.32c-0.21,0-0.4-0.08-0.55-0.23l-0.77-0.77c-0.3-0.31-0.29-0.8,0.02-1.09
			c0.3-0.29,0.78-0.29,1.08,0L43.13,21c0.3,0.3,0.3,0.79,0,1.09C42.98,22.24,42.79,22.32,42.58,22.32L42.58,22.32z"/>
		<path class="st371" d="M45.68,22.45h-2.32c-1.71,0-3.1-1.39-3.1-3.1v-1.76c-0.73-0.33-1.52-0.52-2.32-0.54v4.63
			c0,1.71,1.39,3.1,3.1,3.1h6.47c-0.27-0.6-0.64-1.14-1.11-1.6L45.68,22.45z"/>
		<path class="st368" d="M30.97,17.03h-3.1l0,0v-6.19c0-0.86,0.69-1.55,1.55-1.55c0.86,0,1.55,0.69,1.55,1.55V17.03L30.97,17.03z"/>
		<path class="st369" d="M30.97,17.03h-3.1v-1.55h3.1V17.03z"/>
		<path class="st370" d="M24.77,19.35h1.55c0.86,0,1.55,0.69,1.55,1.55v2.32c0,0.86-0.69,1.55-1.55,1.55h-1.55
			c-0.86,0-1.55-0.69-1.55-1.55V20.9C23.23,20.05,23.92,19.35,24.77,19.35z"/>
		<path class="st371" d="M27.1,22.45c-0.86,0-1.55-0.69-1.55-1.55v-1.55h-0.77c-0.86,0-1.55,0.69-1.55,1.55v2.32
			c0,0.86,0.69,1.55,1.55,1.55h1.55c0.86,0,1.55-0.69,1.55-1.55v-0.77H27.1z"/>
		<path class="st370" d="M32.52,19.35h1.55c0.86,0,1.55,0.69,1.55,1.55v2.32c0,0.86-0.69,1.55-1.55,1.55h-1.55
			c-0.86,0-1.55-0.69-1.55-1.55V20.9C30.97,20.05,31.66,19.35,32.52,19.35z"/>
		<path class="st371" d="M34.84,22.45c-0.86,0-1.55-0.69-1.55-1.55v-1.55h-0.77c-0.86,0-1.55,0.69-1.55,1.55v2.32
			c0,0.86,0.69,1.55,1.55,1.55h1.55c0.86,0,1.55-0.69,1.55-1.55v-0.77H34.84z"/>
		<path class="st369" d="M7.74,23.23c0-0.26-0.03-0.52-0.08-0.77H5.74l1.36-1.36C6.81,20.66,6.44,20.29,6,20l-1.36,1.36v-1.92
			c-0.51-0.1-1.04-0.1-1.55,0v1.92L1.74,20c-0.43,0.29-0.81,0.66-1.09,1.09L2,22.45H0.08c-0.1,0.51-0.1,1.04,0,1.55H2l-1.36,1.36
			c0.29,0.43,0.66,0.81,1.09,1.09l1.36-1.36v1.92c0.51,0.1,1.04,0.1,1.55,0v-1.92L6,26.45c0.43-0.29,0.81-0.66,1.09-1.09L5.74,24
			h1.92C7.72,23.75,7.74,23.49,7.74,23.23z"/>
	</g>
</g>
<g id="Layer_2">
</g>
</svg>

<svg id="Acoustic_Grand_Keyboard" data-name="Acoustic Grand Keyboard" xmlns="http://www.w3.org/2000/svg" viewBox="0 0 48 48"><defs><style>.cls-1{fill:#f8c460;}.cls-2{fill:#faaf42;}.cls-3{fill:#7a838b;}.cls-4{fill:#5d6972;}.cls-5{fill:#a7d0e1;}.cls-6{fill:#80bbce;}.cls-7{fill:#fff;}</style></defs><g id="Layer_31" data-name="Layer 31"><path class="cls-1" d="M19.49,20.77l1.92-1.92A6.17,6.17,0,0,1,25.79,17h11.9a6.15,6.15,0,0,1,4.38,1.82l4.33,4.32a5.48,5.48,0,0,1-3.87,9.35H25A3.09,3.09,0,0,1,22.32,31l-2.84-4.73a3.08,3.08,0,0,0-2.65-1.51H3.1V21.68H17.3a3.1,3.1,0,0,0,2.19-.91Z"/><path class="cls-2" d="M44.07,30.19h-12A12.86,12.86,0,0,1,21,24a3.09,3.09,0,0,0-2.65-1.51H4.65v-.77H3.1v3.09H16.83a3.08,3.08,0,0,1,2.65,1.51L22.32,31A3.09,3.09,0,0,0,25,32.52H42.53a5.47,5.47,0,0,0,5.17-3.71,5.46,5.46,0,0,1-3.63,1.38Z"/><path class="cls-1" d="M1.55,21.68H6.19L3.1,13.94H0Z"/><path class="cls-2" d="M4.81,18.22a3.8,3.8,0,0,0-3.9.27l.64,3.19H6.19Z"/><path class="cls-1" d="M1.55,24.77H6.19L3.1,29.42H0Z"/><path class="cls-2" d="M.78,27.08a3.85,3.85,0,0,0,2.85,1.54l2.56-3.85H1.55Z"/><circle class="cls-3" cx="3.87" cy="23.23" r="3.87"/><path class="cls-3" d="M41.81,36.39H39.48V32.52h2.33Z"/><path class="cls-3" d="M28.65,36.39H26.32V32.52h2.33Z"/><path class="cls-4" d="M41.81,34.06H39.48V32.52h2.33Z"/><path class="cls-4" d="M28.65,34.06H26.32V32.52h2.33Z"/><path class="cls-5" d="M29.42,13.94l17.37.72A1.16,1.16,0,0,0,48,13.55V13.5a1.16,1.16,0,0,0-1.11-1.16l-17.47-.73Z"/><path class="cls-5" d="M29.42,13.94l-17.37.72a1.16,1.16,0,0,1-1.21-1.11V13.5A1.16,1.16,0,0,1,12,12.34l17.47-.73Z"/><path class="cls-6" d="M26.32,14.06l3.1-.12V11.61l-3.1.13Z"/><path class="cls-6" d="M32.52,14.06l-3.1-.12V11.61l3.1.13Z"/><path class="cls-1" d="M43.35,36.39l3.2-1.07a1.1,1.1,0,0,1,1.39.7,1,1,0,0,1,.06.35,1.1,1.1,0,0,1-.75,1l-3.9,1.3H22.84a1.16,1.16,0,1,1,0-2.32Z"/><path class="cls-2" d="M47.76,35.69a1.08,1.08,0,0,0-1.21-.37l-3.2,1.07h2.33Z"/><path class="cls-2" d="M24,37.55a1.16,1.16,0,0,1,1.16-1.16H22.84a1.16,1.16,0,1,0,0,2.32h2.32A1.16,1.16,0,0,1,24,37.55Z"/><path class="cls-5" d="M37.94,17.05v4.63A3.09,3.09,0,0,0,41,24.77H47.5a5.31,5.31,0,0,0-1.1-1.6l-4.33-4.33A6.13,6.13,0,0,0,37.94,17.05Z"/><path class="cls-7" d="M42.58,22.32a.78.78,0,0,1-.55-.23l-.77-.77a.78.78,0,0,1,0-1.1.77.77,0,0,1,1.07,0l.78.78a.77.77,0,0,1,0,1.09.76.76,0,0,1-.55.23Z"/><path class="cls-6" d="M45.68,22.45H43.35a3.09,3.09,0,0,1-3.09-3.1V17.59a6,6,0,0,0-2.32-.54v4.63A3.09,3.09,0,0,0,41,24.77H47.5a5.31,5.31,0,0,0-1.1-1.6Z"/><path class="cls-3" d="M31,17h-3.1V10.84a1.55,1.55,0,1,1,3.1,0V17Z"/><path class="cls-4" d="M31,17h-3.1V15.48H31Z"/><rect class="cls-5" x="23.23" y="19.35" width="4.65" height="5.42" rx="1.55"/><path class="cls-6" d="M27.1,22.45a1.54,1.54,0,0,1-1.55-1.55V19.35h-.78a1.55,1.55,0,0,0-1.54,1.55v2.33a1.54,1.54,0,0,0,1.54,1.54h1.55a1.54,1.54,0,0,0,1.55-1.54v-.78Z"/><rect class="cls-5" x="30.97" y="19.35" width="4.65" height="5.42" rx="1.55"/><path class="cls-6" d="M34.84,22.45a1.54,1.54,0,0,1-1.55-1.55V19.35h-.77A1.55,1.55,0,0,0,31,20.9v2.33a1.54,1.54,0,0,0,1.55,1.54h1.54a1.54,1.54,0,0,0,1.55-1.54v-.78Z"/><path class="cls-4" d="M7.74,23.23a4.11,4.11,0,0,0-.07-.78H5.74L7.1,21.09A3.94,3.94,0,0,0,6,20L4.65,21.36V19.43a4,4,0,0,0-1.55,0v1.93L1.74,20a3.94,3.94,0,0,0-1.1,1.09L2,22.45H.08A3.68,3.68,0,0,0,.08,24H2L.64,25.36a3.94,3.94,0,0,0,1.1,1.09L3.1,25.09V27a4,4,0,0,0,1.55,0V25.09L6,26.45a3.94,3.94,0,0,0,1.1-1.09L5.74,24H7.67A3.94,3.94,0,0,0,7.74,23.23Z"/></g></svg>
